public/svg/m_logo.svg

<svg
    width="921"
    height="1050"
    style="aspect-radio: 9.21/10.50"
    viewBox="0 0 921 1050"
    fill="#15d0ff"
    xmlns="http://www.w3.org/2000/svg"
  >
    <path
      d="M652.665 2.91313C653.835 1.96623 655.952 0.907929 657.401 0.518029C659.351 0.0167294 689.883 -0.0946707 910.688 0.0724294L913.753 1.79913C915.87 3.02453 917.319 4.36133 920.16 8.87303L920.439 237.354L919.157 239.805C918.489 241.198 917.04 243.036 915.926 243.983C914.812 244.93 912.917 246.044 911.747 246.378C910.577 246.768 908.683 247.102 907.624 247.102C906.565 247.102 904.671 246.768 903.501 246.378C902.275 246.044 900.269 244.818 899.044 243.704C897.762 242.646 896.258 240.641 895.645 239.248C894.533 236.858 894.531 235.467 894.365 137.052L894.363 136.426C894.252 53.6558 894.141 35.6647 893.528 34.2165C893.082 33.2139 892.023 31.5429 891.132 30.4846C890.24 29.482 888.513 28.0895 885.059 26.2514L656.621 25.6944L654.225 24.469C652.943 23.7449 651.272 22.3524 650.492 21.4055C649.712 20.4029 648.709 18.342 648.263 16.7824C647.762 15.1114 647.539 13.1062 647.706 11.7694C647.873 10.544 648.597 8.42743 649.266 7.09063C649.935 5.75383 651.439 3.86003 652.665 2.91313Z"
    />
    <path
      d="M69.7572 525.045C69.7015 275.509 69.7572 71.0342 69.9244 70.7V70.6443C70.1472 70.143 103.689 69.9759 400.045 69.9759L400.324 72.0368C400.491 73.2065 401.606 81.8957 402.831 91.4204C404.057 100.889 405.784 114.313 406.731 121.22C407.623 128.127 409.517 142.497 410.91 153.247C412.247 163.942 413.64 174.469 413.975 176.641C414.253 178.758 415.423 187.447 416.482 195.858C417.596 204.269 418.599 212.067 418.711 213.125C418.878 214.183 419.212 216.968 419.546 219.252C419.825 221.536 420.828 229.334 421.775 236.519C422.722 243.704 423.558 250.333 423.725 251.279C423.836 252.171 425.452 264.48 427.291 278.572L427.916 283.367C430.331 301.88 436.22 347.026 441.833 389.694C447.962 436.705 453.533 479.092 454.146 483.827C454.759 488.561 455.372 493.352 455.484 494.41C455.651 495.468 456.375 501.261 457.155 507.221C457.935 513.181 458.715 518.639 458.827 519.308C458.994 520.143 459.495 520.589 460.219 520.589C460.944 520.589 461.445 520.143 461.612 519.308C461.78 518.639 462.392 514.072 463.005 509.17C463.674 504.269 464.398 498.42 464.732 496.192C465.011 494.02 465.457 490.232 465.791 487.837C466.07 485.498 466.46 482.657 466.627 481.599C466.738 480.541 468.131 469.846 469.691 457.926C471.251 445.951 472.756 434.421 473.034 432.304C473.313 430.188 473.981 425.509 474.427 422C474.873 418.491 475.764 411.807 476.377 407.239C476.934 402.616 477.603 397.77 477.77 396.378C477.937 394.985 478.717 389.081 479.442 383.288C480.222 377.44 481.503 367.804 482.228 361.844L482.303 361.269C483.078 355.347 484.141 347.221 484.735 342.906C485.348 338.45 486.629 328.925 487.521 321.74C488.468 314.555 489.471 306.757 489.749 304.473C490.084 302.189 490.418 299.404 490.585 298.346C490.696 297.288 493.482 276.233 496.658 251.558C499.89 226.883 502.898 203.712 503.4 200.035C503.901 196.359 506.018 179.928 508.191 163.552C510.309 147.176 512.593 129.853 513.206 125.119C513.819 120.384 514.432 115.873 514.543 115.093C514.655 114.313 515.045 111.417 515.379 108.687C515.713 105.902 516.828 97.0461 517.886 88.9139C518.945 80.7817 519.948 73.2065 520.393 69.9759L850.515 70.2544V978.721L647.427 979V625.862C647.427 292.275 647.372 272.724 646.48 272.835C645.644 273.002 644.864 276.79 641.187 298.903C638.847 313.162 631.827 355.104 625.698 392.2C619.569 429.241 610.153 486.055 604.748 518.361C599.4 550.667 592.156 594.391 588.646 615.557C585.136 636.668 575.887 692.591 568.031 739.768C560.231 786.946 548.642 856.627 542.346 894.615C536.05 932.602 530.367 967.08 528.417 978.721L460.331 978.833C395.867 979 392.245 978.944 391.967 977.997C391.855 977.496 390.852 971.536 389.738 964.797C388.624 958.057 383.776 928.591 378.873 899.349C374.026 870.107 365 815.799 358.871 778.758C352.742 741.662 339.537 662.345 329.62 602.468C319.702 542.59 305.773 458.595 298.641 415.873C291.565 373.151 283.375 323.522 280.366 305.698C275.909 278.74 274.794 273.058 273.959 272.668C273.067 272.167 273.012 289.155 273.012 979L69.9244 978.721L69.7572 525.045Z"
    />
    <path
      d="M4.56876 805.049C5.6831 804.102 7.46603 803.044 8.46893 802.654C9.47183 802.32 11.3105 801.985 12.5362 801.985C13.762 801.93 15.8792 802.32 17.2722 802.765C18.6651 803.266 20.6152 804.436 21.6738 805.439C22.6767 806.441 24.0696 808.335 25.9082 812.234L26.0197 912.661C26.1868 995.376 26.2983 1013.37 26.9111 1014.87C27.3569 1015.82 28.4155 1017.49 29.307 1018.55C30.1984 1019.55 31.9256 1020.94 35.3801 1022.78L263.818 1023.34L266.158 1024.62C267.496 1025.29 269.167 1026.68 269.947 1027.68C270.727 1028.63 271.73 1030.75 272.176 1032.25C272.677 1033.92 272.9 1035.93 272.733 1037.26C272.566 1038.49 271.841 1040.6 271.117 1042C270.449 1043.39 268.888 1045.28 267.663 1046.23C266.381 1047.23 264.208 1048.18 262.425 1048.57C260.085 1049.07 229.385 1049.24 9.75041 1048.96L6.686 1047.23C4.56876 1046.01 3.12013 1044.67 0.278583 1040.16L0 811.677L1.28148 809.226C1.95008 807.834 3.45443 805.94 4.56876 805.049Z"
    />
  </svg>

<svg xmlns="http://www.w3.org/2000/svg" width="921" height="1050" fill="#15d0ff" style="aspect-radio:9.21/10.5" viewBox="0 0 921 1050"><path d="M652.665 2.913c1.17-.947 3.287-2.005 4.736-2.395 1.95-.501 32.482-.613 253.287-.446l3.065 1.727c2.117 1.226 3.566 2.562 6.407 7.074l.279 228.481-1.282 2.451c-.668 1.393-2.117 3.231-3.231 4.178s-3.009 2.061-4.179 2.395c-1.17.39-3.064.724-4.123.724s-2.953-.334-4.123-.724c-1.226-.334-3.232-1.56-4.457-2.674-1.282-1.058-2.786-3.063-3.399-4.456-1.112-2.39-1.114-3.781-1.28-102.196l-.002-.626c-.111-82.77-.222-100.761-.835-102.21-.446-1.002-1.505-2.673-2.396-3.731-.892-1.003-2.619-2.395-6.073-4.234l-228.438-.557-2.396-1.225c-1.282-.724-2.953-2.117-3.733-3.064-.78-1.002-1.783-3.063-2.229-4.623-.501-1.67-.724-3.676-.557-5.013.167-1.225.891-3.342 1.56-4.678.669-1.337 2.173-3.231 3.399-4.178"/><path d="M69.757 525.045c-.056-249.536 0-454.01.167-454.345v-.056c.223-.501 33.765-.668 330.121-.668l.279 2.06c.167 1.17 1.282 9.86 2.507 19.384 1.226 9.469 2.953 22.893 3.9 29.8.892 6.907 2.786 21.277 4.179 32.027 1.337 10.695 2.73 21.222 3.065 23.394.278 2.117 1.448 10.806 2.507 19.217 1.114 8.411 2.117 16.209 2.229 17.267.167 1.058.501 3.843.835 6.127.279 2.284 1.282 10.082 2.229 17.267s1.783 13.814 1.95 14.76c.111.892 1.727 13.201 3.566 27.293l.625 4.795c2.415 18.513 8.304 63.659 13.917 106.327 6.129 47.011 11.7 89.398 12.313 94.133s1.226 9.525 1.338 10.583c.167 1.058.891 6.851 1.671 12.811s1.56 11.418 1.672 12.087c.167.835.668 1.281 1.392 1.281.725 0 1.226-.446 1.393-1.281.168-.669.78-5.236 1.393-10.138.669-4.901 1.393-10.75 1.727-12.978.279-2.172.725-5.96 1.059-8.355.279-2.339.669-5.18.836-6.238.111-1.058 1.504-11.753 3.064-23.673 1.56-11.975 3.065-23.505 3.343-25.622.279-2.116.947-6.795 1.393-10.304s1.337-10.193 1.95-14.761c.557-4.623 1.226-9.469 1.393-10.861s.947-7.297 1.672-13.09c.78-5.848 2.061-15.484 2.786-21.444l.075-.575c.775-5.922 1.838-14.048 2.432-18.363.613-4.456 1.894-13.981 2.786-21.166.947-7.185 1.95-14.983 2.228-17.267.335-2.284.669-5.069.836-6.127.111-1.058 2.897-22.113 6.073-46.788 3.232-24.675 6.24-47.846 6.742-51.523.501-3.676 2.618-20.107 4.791-36.483 2.118-16.376 4.402-33.699 5.015-38.433s1.226-9.246 1.337-10.026c.112-.78.502-3.676.836-6.406.334-2.785 1.449-11.64 2.507-19.773a3387 3387 0 0 1 2.507-18.938l330.122.278v908.467L647.427 979V625.862c0-333.587-.055-353.138-.947-353.027-.836.167-1.616 3.955-5.293 26.068-2.34 14.259-9.36 56.201-15.489 93.297-6.129 37.041-15.545 93.855-20.95 126.161-5.348 32.306-12.592 76.03-16.102 97.196-3.51 21.111-12.759 77.034-20.615 124.211-7.8 47.178-19.389 116.859-25.685 154.847-6.296 37.987-11.979 72.465-13.929 84.106l-68.086.112c-64.464.167-68.086.111-68.364-.836-.112-.501-1.115-6.461-2.229-13.2-1.114-6.74-5.962-36.206-10.865-65.448-4.847-29.242-13.873-83.55-20.002-120.591-6.129-37.096-19.334-116.413-29.251-176.29-9.918-59.878-23.847-143.873-30.979-186.595-7.076-42.722-15.266-92.351-18.275-110.175-4.457-26.958-5.572-32.64-6.407-33.03-.892-.501-.947 16.487-.947 706.332l-203.088-.279z"/><path d="M4.569 805.049c1.114-.947 2.897-2.005 3.9-2.395 1.003-.334 2.842-.669 4.067-.669 1.226-.055 3.343.335 4.736.78 1.393.501 3.343 1.671 4.402 2.674 1.003 1.002 2.396 2.896 4.234 6.795l.112 100.427c.167 82.715.278 100.709.891 102.209.446.95 1.505 2.62 2.396 3.68.891 1 2.619 2.39 6.073 4.23l228.438.56 2.34 1.28c1.338.67 3.009 2.06 3.789 3.06.78.95 1.783 3.07 2.229 4.57.501 1.67.724 3.68.557 5.01-.167 1.23-.892 3.34-1.616 4.74-.668 1.39-2.229 3.28-3.454 4.23-1.282 1-3.455 1.95-5.238 2.34-2.34.5-33.04.67-252.675.39l-3.064-1.73c-2.117-1.22-3.566-2.56-6.407-7.07L0 811.677l1.281-2.451c.67-1.392 2.173-3.286 3.288-4.177"/></svg>
